X:13
T:Job of Journey Work
Z: id:dc-setdance-14
M:C|
L:1/8
K:D Major
fe|dcAG FGAB|=cABG A2fe|d2cA BGAF|GBAF DEFG|!
ABAF GFEF|D2DE F2FG|A2dB cdef|d2dc d2:|!
de|f2ef gfef|dcAG A2de|f2ef gfef|dedc A2fg|agfa gfef|dcde f2|]!